svg/SJJB-OpenStreetMapIcons/place_of_worship/sikh3.svg

<?xml version="1.0" encoding="UTF-8" standalone="no"?>
<!-- Created with Inkscape (http://www.inkscape.org/) -->
<svg
   xmlns:dc="http://purl.org/dc/elements/1.1/"
   xmlns:cc="http://creativecommons.org/ns#"
   xmlns:rdf="http://www.w3.org/1999/02/22-rdf-syntax-ns#"
   xmlns:svg="http://www.w3.org/2000/svg"
   xmlns="http://www.w3.org/2000/svg"
   xmlns:sodipodi="http://sodipodi.sourceforge.net/DTD/sodipodi-0.dtd"
   xmlns:inkscape="http://www.inkscape.org/namespaces/inkscape"
   version="1.0"
   width="580"
   height="580"
   id="svg2"
   sodipodi:version="0.32"
   inkscape:version="0.46"
   sodipodi:docname="place_of_worship_sikh3.svg"
   sodipodi:docbase="s:\Data\FacilityIcons"
   inkscape:output_extension="org.inkscape.output.svg.inkscape">
  <metadata
     id="metadata2975">
    <rdf:RDF>
      <cc:Work
         rdf:about="">
        <dc:format>image/svg+xml</dc:format>
        <dc:type
           rdf:resource="http://purl.org/dc/dcmitype/StillImage" />
        <cc:license
           rdf:resource="http://web.resource.org/cc/PublicDomain" />
        <dc:language>en</dc:language>
      </cc:Work>
    </rdf:RDF>
  </metadata>
  <sodipodi:namedview
     inkscape:window-height="1003"
     inkscape:window-width="1400"
     inkscape:pageshadow="2"
     inkscape:pageopacity="0.0"
     guidetolerance="10.0"
     gridtolerance="10.0"
     objecttolerance="10.0"
     borderopacity="1.0"
     bordercolor="#666666"
     pagecolor="#ffffff"
     id="base"
     inkscape:zoom="0.65172414"
     inkscape:cx="-57.954519"
     inkscape:cy="294.85545"
     inkscape:window-x="0"
     inkscape:window-y="20"
     inkscape:current-layer="svg2"
     showgrid="false" />
  <defs
     id="defs4">
    <inkscape:perspective
       sodipodi:type="inkscape:persp3d"
       inkscape:vp_x="0 : 290 : 1"
       inkscape:vp_y="0 : 1000 : 0"
       inkscape:vp_z="580 : 290 : 1"
       inkscape:persp3d-origin="290 : 193.33333 : 1"
       id="perspective2441" />
    <inkscape:perspective
       id="perspective2466"
       inkscape:persp3d-origin="372.04724 : 350.78739 : 1"
       inkscape:vp_z="744.09448 : 526.18109 : 1"
       inkscape:vp_y="0 : 1000 : 0"
       inkscape:vp_x="0 : 526.18109 : 1"
       sodipodi:type="inkscape:persp3d" />
    <inkscape:perspective
       id="perspective3333"
       inkscape:persp3d-origin="372.04724 : 350.78739 : 1"
       inkscape:vp_z="744.09448 : 526.18109 : 1"
       inkscape:vp_y="0 : 1000 : 0"
       inkscape:vp_x="0 : 526.18109 : 1"
       sodipodi:type="inkscape:persp3d" />
    <inkscape:perspective
       id="perspective3401"
       inkscape:persp3d-origin="372.04724 : 350.78739 : 1"
       inkscape:vp_z="744.09448 : 526.18109 : 1"
       inkscape:vp_y="0 : 1000 : 0"
       inkscape:vp_x="0 : 526.18109 : 1"
       sodipodi:type="inkscape:persp3d" />
    <inkscape:perspective
       id="perspective3464"
       inkscape:persp3d-origin="372.04724 : 350.78739 : 1"
       inkscape:vp_z="744.09448 : 526.18109 : 1"
       inkscape:vp_y="0 : 1000 : 0"
       inkscape:vp_x="0 : 526.18109 : 1"
       sodipodi:type="inkscape:persp3d" />
    <inkscape:perspective
       id="perspective3581"
       inkscape:persp3d-origin="225 : 150 : 1"
       inkscape:vp_z="450 : 225 : 1"
       inkscape:vp_y="0 : 1000 : 0"
       inkscape:vp_x="0 : 225 : 1"
       sodipodi:type="inkscape:persp3d" />
    <inkscape:perspective
       id="perspective4312"
       inkscape:persp3d-origin="225 : 150 : 1"
       inkscape:vp_z="450 : 225 : 1"
       inkscape:vp_y="0 : 1000 : 0"
       inkscape:vp_x="0 : 225 : 1"
       sodipodi:type="inkscape:persp3d" />
  </defs>
  <g
     id="g1327">
    <path
       d="M 66.275,1.768 C 24.94,1.768 1.704,23.139 1.704,66.804 L 1.704,516.927 C 1.704,557.771 22.599,579.156 63.896,579.156 L 515.92,579.156 C 557.227,579.156 578.149,558.841 578.149,516.927 L 578.149,66.804 C 578.149,24.203 557.227,1.768 514.628,1.768 C 514.624,1.768 66.133,1.625 66.275,1.768 z "
       style="fill:#111;stroke:#eee;stroke-width:3.40799999"
       id="path1329" />
  </g>
  <path
     style="fill:#ffffff"
     d="M 268.40625,34.65625 C 256.96064,52.49931 236.76056,62.949963 225.65625,81.125 C 225.72196,90.964231 225.643,101.87856 220.3125,110.3125 C 210.20014,117.4593 198.61995,123.11754 190.56832,132.79499 C 172.28019,149.96541 155.94867,171.69238 154.25,197.53125 C 151.38287,221.00859 153.72528,245.77372 166.27609,266.18148 C 179.11986,286.91677 195.0254,306.96571 217.28125,318.03125 C 225.66466,324.17239 228.05452,335.70875 224.8125,345.375 C 223.43837,350.06085 225.49125,355.33517 230.97388,355.76266 C 243.19385,360.8492 254.18472,369.77111 261.15625,381.1875 C 264.93985,388.11265 267.22757,398.63538 260.78125,404.65625 C 255.12935,408.76627 249.15217,402.15562 244.04324,400.24482 C 228.2378,389.98228 213.84058,377.97741 199.11249,366.25927 C 168.829,341.22034 135.073,308.1739 123.375,269.8125 C 111.62296,236.43034 108.33319,193.40957 125.0625,160.6875 C 132.60882,144.95818 145.26473,132.94724 156.9375,120.21875 C 159.02722,117.119 154.849,114.94533 152.28125,116.71875 C 137.84815,121.09045 126.15054,131.371 115.29289,141.36336 C 88.500896,168.03083 73.647651,210.87689 76.09375,248.5 C 77.401953,301.31572 106.49221,353.07738 138.17729,394.3815 C 150.58484,411.89337 164.2556,429.69689 169.71875,450.6875 C 168.51555,454.70396 173.12064,456.43108 175.59375,453.4375 C 193.09667,444.3766 203.92113,425.98679 221.84375,417.75 C 229.74576,415.54305 236.70926,420.47859 243.0625,424.28125 C 246.13893,425.48074 253.71213,428.3333 249.75,432.59375 C 241.85701,437.46238 232.53437,439.85416 225.10791,445.62088 C 210.99084,455.02176 198.10326,470.03323 198.09375,487.78125 C 198.80723,497.17578 209.36832,504.61603 218.21875,500.25 C 228.59922,496.56946 234.23777,483.96564 230.40625,473.71875 C 230.65438,463.26797 241.807,458.31431 250.03125,454.59375 C 254.20733,451.73559 262.41936,450.20327 263.84375,456.8125 C 266.93861,467.41576 263.54825,478.55494 262.5,489.09375 C 260.99343,496.80331 255.86277,503.14581 253.21875,510.15625 C 253.15068,519.26498 260.76378,526.25744 267.4375,531.3125 C 274.13259,536.72849 271.70154,527.72686 272.0625,523.34375 C 272.0625,358.59375 272.0625,193.84375 272.0625,29.09375 C 270.84375,30.947917 269.625,32.802083 268.40625,34.65625 z M 231.4375,138.90625 C 240.18668,139.61637 242.37954,150.33089 243.86485,157.34581 C 252.14867,189.652 260.94563,219.32299 253.21323,252.63744 C 249.86608,265.26866 247.49466,274.32417 242,286.1875 C 240.14856,291.07752 235.26937,294.32377 230.0625,292.28125 C 217.53684,286.92976 211.95535,278.52776 202.82681,268.76449 C 184.70533,248.63603 175.14497,221.5665 182.65293,194.81215 C 187.58937,172.25222 199.83164,158.33205 218.67468,146.1102 C 222.93776,143.95914 226.53253,139.32564 231.4375,138.90625 z"
     id="path7034"
     sodipodi:nodetypes="cccccccccccccccccccccccccccccccccccccccccccccc" />
  <path
     id="path2439"
     d="M 310.0625,75.75 C 307.63617,79.39952 305.24382,83.111115 301.90625,85.9375 C 291.08198,98.336178 276.4606,107.45431 267.71875,121.625 C 268.30625,127.99796 266.5544,148.69438 260.96875,152.34375 C 252.24773,158.85136 241.77329,163.19676 234.65625,171.625 C 213.62872,191.81762 197.75583,210.75874 196.0625,240.40625 C 193.17635,269.83369 197.2383,291.13768 214.78125,315.59375 C 225.94312,331.40908 239.02844,346.53294 256.4375,355.15625 C 263.60136,358.89291 269.89212,370.19347 267.9375,378.875 C 267.85673,383.0307 265.11422,388.4661 267.40625,392.09375 C 274.065,394.98869 281.07719,397.44043 286.5,402.59375 C 297.59498,410.74673 308.97937,423.44761 306.34375,438.375 C 305.82907,445.03561 298.50039,450.92379 292.21875,446.65625 C 276.9086,440.15267 264.7151,428.20939 251.25,418.65625 C 217.25291,392.04119 184.26522,360.54574 169.75,318.8125 C 157.22458,285.22597 149.93489,246.37235 164.34375,212.21875 C 171.48971,194.57032 184.32501,180.17702 197.75,167.15625 C 198.61306,166.13587 201.07997,163.28286 197.875,164.375 C 186.53774,167.04406 177.09212,175.05187 168,182.03125 C 138.84265,206.74102 122.95652,245.03227 124.03125,283.09375 C 123.37609,335.49095 144.62804,385.80087 175.4375,427.125 C 189.32523,446.70758 204.78722,466.11279 211.65625,489.40625 C 212.02545,490.54861 210.82585,494.64589 213.125,492.5 C 229.79228,484.10582 240.72358,467.91963 256.28125,458.1875 C 263.48308,453.11687 272.77856,455.29136 279.65625,459.84375 C 283.56821,463.39974 290.19024,463.77615 292.78125,468.53125 C 294.21781,475.37789 285.12662,477.02695 280.6875,479.28125 C 262.2254,487.58059 243.75834,502.29546 240.25,523.28125 C 238.40953,532.15862 246.43998,541.93673 255.65625,538.9375 C 265.66679,536.53472 272.42983,524.79087 268.46875,515.125 C 267.56592,503.95999 278.38722,497.1397 287.53125,493.8125 C 292.47985,490.4022 301.50752,487.3598 305,494.25 C 309.396,504.14083 305.79864,515.27209 305.1875,525.59375 C 304.01848,534.29377 299.75206,542.15128 295.28125,549.40625 C 294.425,557.40311 301.55609,563.44849 306.65625,568.53125 C 307.74779,569.26321 308.90031,569.85178 310.0625,570.34375 L 310.0625,75.75 z M 271.15625,172.875 C 280.82605,173.06262 284.0559,184.1151 285.5625,191.90625 C 296.31819,235.31804 304.61877,263.95903 291.40625,307.8125 C 288.34772,317.97151 286.77465,329.90176 279,337.5 C 269.75134,341.95246 260.78755,333.66467 253.96875,328.3125 C 222.75629,302.48309 205.41288,267.52004 218.5625,228 C 226.90937,202.10792 245.3224,187.8893 268.21875,173.46875 C 269.15548,173.09649 270.15232,172.98009 271.15625,172.875 z"
     style="fill:#ffffff;opacity:0.25" />
  <path
     style="fill:#ffffff;opacity:0.25"
     d="M 309.98006,75.75 C 312.40639,79.39952 314.79874,83.111115 318.13631,85.9375 C 328.96058,98.336178 343.58196,107.45431 352.32381,121.625 C 351.73631,127.99796 353.48816,148.69438 359.07381,152.34375 C 367.79483,158.85136 378.26927,163.19676 385.38631,171.625 C 406.41384,191.81762 422.28673,210.75874 423.98006,240.40625 C 426.86621,269.83369 422.80426,291.13768 405.26131,315.59375 C 394.09944,331.40908 381.01412,346.53294 363.60506,355.15625 C 356.4412,358.89291 350.15044,370.19347 352.10506,378.875 C 352.18583,383.0307 354.92834,388.4661 352.63631,392.09375 C 345.97756,394.98869 338.96537,397.44043 333.54256,402.59375 C 322.44758,410.74673 311.06319,423.44761 313.69881,438.375 C 314.21349,445.03561 321.54217,450.92379 327.82381,446.65625 C 343.13396,440.15267 355.32746,428.20939 368.79256,418.65625 C 402.78965,392.04119 435.77734,360.54574 450.29256,318.8125 C 462.81798,285.22597 470.10767,246.37235 455.69881,212.21875 C 448.55285,194.57032 435.71755,180.17702 422.29256,167.15625 C 421.4295,166.13587 418.96259,163.28286 422.16756,164.375 C 433.50482,167.04406 442.95044,175.05187 452.04256,182.03125 C 481.19991,206.74102 497.08604,245.03227 496.01131,283.09375 C 496.66647,335.49095 475.41452,385.80087 444.60506,427.125 C 430.71733,446.70758 415.25534,466.11279 408.38631,489.40625 C 408.01711,490.54861 409.21671,494.64589 406.91756,492.5 C 390.25028,484.10582 379.31898,467.91963 363.76131,458.1875 C 356.55948,453.11687 347.264,455.29136 340.38631,459.84375 C 336.47435,463.39974 329.85232,463.77615 327.26131,468.53125 C 325.82475,475.37789 334.91594,477.02695 339.35506,479.28125 C 357.81716,487.58059 376.28422,502.29546 379.79256,523.28125 C 381.63303,532.15862 373.60258,541.93673 364.38631,538.9375 C 354.37577,536.53472 347.61273,524.79087 351.57381,515.125 C 352.47664,503.95999 341.65534,497.1397 332.51131,493.8125 C 327.56271,490.4022 318.53504,487.3598 315.04256,494.25 C 310.64656,504.14083 314.24392,515.27209 314.85506,525.59375 C 316.02408,534.29377 320.2905,542.15128 324.76131,549.40625 C 325.61756,557.40311 318.48647,563.44849 313.38631,568.53125 C 312.29477,569.26321 311.14225,569.85178 309.98006,570.34375 L 309.98006,75.75 z M 348.88631,172.875 C 339.21651,173.06262 335.98666,184.1151 334.48006,191.90625 C 323.72437,235.31804 315.42379,263.95903 328.63631,307.8125 C 331.69484,317.97151 333.26791,329.90176 341.04256,337.5 C 350.29122,341.95246 359.25501,333.66467 366.07381,328.3125 C 397.28627,302.48309 414.62968,267.52004 401.48006,228 C 393.13319,202.10792 374.72016,187.8893 351.82381,173.46875 C 350.88708,173.09649 349.89024,172.98009 348.88631,172.875 z"
     id="path2441" />
  <path
     sodipodi:nodetypes="cccccccccccccccccccccccccccccccccccccccccccccc"
     id="path3778"
     d="M 273.63337,34.65625 C 285.07898,52.49931 305.27906,62.949963 316.38337,81.125 C 316.31766,90.964231 316.39662,101.87856 321.72712,110.3125 C 331.83948,117.4593 343.41967,123.11754 351.4713,132.79499 C 369.75943,149.96541 386.09095,171.69238 387.78962,197.53125 C 390.65675,221.00859 388.31434,245.77372 375.76353,266.18148 C 362.91976,286.91677 347.01422,306.96571 324.75837,318.03125 C 316.37496,324.17239 313.9851,335.70875 317.22712,345.375 C 318.60125,350.06085 316.54837,355.33517 311.06574,355.76266 C 298.84577,360.8492 287.8549,369.77111 280.88337,381.1875 C 277.09977,388.11265 274.81205,398.63538 281.25837,404.65625 C 286.91027,408.76627 292.88745,402.15562 297.99638,400.24482 C 313.80182,389.98228 328.19904,377.97741 342.92713,366.25927 C 373.21062,341.22034 406.96662,308.1739 418.66462,269.8125 C 430.41666,236.43034 433.70643,193.40957 416.97712,160.6875 C 409.4308,144.95818 396.77489,132.94724 385.10212,120.21875 C 383.0124,117.119 387.19062,114.94533 389.75837,116.71875 C 404.19147,121.09045 415.88908,131.371 426.74673,141.36336 C 453.53873,168.03083 468.39197,210.87689 465.94587,248.5 C 464.63767,301.31572 435.54741,353.07738 403.86233,394.3815 C 391.45478,411.89337 377.78402,429.69689 372.32087,450.6875 C 373.52407,454.70396 368.91898,456.43108 366.44587,453.4375 C 348.94295,444.3766 338.11849,425.98679 320.19587,417.75 C 312.29386,415.54305 305.33036,420.47859 298.97712,424.28125 C 295.90069,425.48074 288.32749,428.3333 292.28962,432.59375 C 300.18261,437.46238 309.50525,439.85416 316.93171,445.62088 C 331.04878,455.02176 343.93636,470.03323 343.94587,487.78125 C 343.23239,497.17578 332.6713,504.61603 323.82087,500.25 C 313.4404,496.56946 307.80185,483.96564 311.63337,473.71875 C 311.38524,463.26797 300.23262,458.31431 292.00837,454.59375 C 287.83229,451.73559 279.62026,450.20327 278.19587,456.8125 C 275.10101,467.41576 278.49137,478.55494 279.53962,489.09375 C 281.04619,496.80331 286.17685,503.14581 288.82087,510.15625 C 288.88894,519.26498 281.27584,526.25744 274.60212,531.3125 C 267.90703,536.72849 270.33808,527.72686 269.97712,523.34375 C 269.97712,358.59375 269.97712,193.84375 269.97712,29.09375 C 271.19587,30.947917 272.41462,32.802083 273.63337,34.65625 z M 310.60212,138.90625 C 301.85294,139.61637 299.66008,150.33089 298.17477,157.34581 C 289.89095,189.652 281.09399,219.32299 288.82639,252.63744 C 292.17354,265.26866 294.54496,274.32417 300.03962,286.1875 C 301.89106,291.07752 306.77025,294.32377 311.97712,292.28125 C 324.50278,286.92976 330.08427,278.52776 339.21281,268.76449 C 357.33429,248.63603 366.89465,221.5665 359.38669,194.81215 C 354.45025,172.25222 342.20798,158.33205 323.36494,146.1102 C 319.10186,143.95914 315.50709,139.32564 310.60212,138.90625 z"
     style="fill:#ffffff" />
</svg>

<svg xmlns="http://www.w3.org/2000/svg" viewBox="0 0 580 580"><path d="m66.28 1.768c-41.34 0-64.57 21.371-64.57 65.04v450.12c0 40.844 20.895 62.23 62.19 62.23h452.02c41.31 0 62.23-20.315 62.23-62.23v-450.12c0-42.601-20.922-65.04-63.52-65.04-.004 0-448.5-.143-448.35 0z" fill="#111" stroke="#eee" stroke-width="3.408"/><g fill="#fff"><path d="m268.41 34.656c-11.446 17.843-31.646 28.29-42.75 46.47.066 9.839-.013 20.754-5.344 29.19-10.112 7.147-21.693 12.805-29.744 22.482-18.288 17.17-34.62 38.897-36.32 64.736-2.867 23.477-.525 48.24 12.03 68.65 12.844 20.735 28.749 40.784 51.01 51.85 8.383 6.141 10.773 17.678 7.531 27.344-1.374 4.686.679 9.96 6.161 10.388 12.22 5.087 23.21 14.01 30.18 25.425 3.784 6.925 6.071 17.448-.375 23.469-5.652 4.11-11.629-2.501-16.738-4.411-15.805-10.263-30.2-22.267-44.931-33.986-30.28-25.04-64.04-58.09-75.74-96.45-11.752-33.382-15.04-76.4 1.688-109.12 7.546-15.729 20.2-27.74 31.875-40.469 2.09-3.1-2.089-5.273-4.656-3.5-14.433 4.372-26.13 14.652-36.988 24.645-26.792 26.667-41.645 69.51-39.2 107.14 1.308 52.816 30.398 104.58 62.08 145.88 12.408 17.512 26.08 35.32 31.541 56.31-1.203 4.02 3.402 5.744 5.875 2.75 17.503-9.06 28.327-27.451 46.25-35.688 7.902-2.207 14.866 2.729 21.22 6.531 3.076 1.199 10.65 4.052 6.688 8.313-7.893 4.869-17.216 7.26-24.642 13.03-14.12 9.401-27 24.412-27.01 42.16.713 9.395 11.275 16.835 20.12 12.469 10.38-3.681 16.02-16.284 12.188-26.531.248-10.451 11.401-15.404 19.625-19.12 4.176-2.858 12.388-4.39 13.813 2.219 3.095 10.603-.296 21.742-1.344 32.28-1.507 7.71-6.637 14.05-9.281 21.06-.068 9.109 7.545 16.1 14.219 21.16 6.695 5.416 4.264-3.586 4.625-7.969 0-164.75 0-329.5 0-494.25-1.219 1.854-2.438 3.708-3.656 5.563m-36.969 104.25c8.749.71 10.942 11.425 12.427 18.44 8.284 32.31 17.08 61.977 9.348 95.29-3.347 12.631-5.719 21.687-11.213 33.55-1.851 4.89-6.731 8.136-11.938 6.094-12.526-5.351-18.11-13.753-27.24-23.517-18.12-20.13-27.682-47.2-20.17-73.952 4.936-22.56 17.18-36.48 36.02-48.702 4.263-2.151 7.858-6.785 12.763-7.204"/><path d="m310.06 75.75c-2.426 3.65-4.819 7.361-8.156 10.188-10.824 12.399-25.446 21.517-34.19 35.688.587 6.373-1.164 27.07-6.75 30.719-8.721 6.508-19.2 10.853-26.313 19.281-21.03 20.19-36.9 39.13-38.594 68.781-2.886 29.427 1.176 50.731 18.719 75.19 11.162 15.815 24.25 30.939 41.656 39.563 7.164 3.737 13.455 15.04 11.5 23.719-.081 4.156-2.823 9.591-.531 13.219 6.659 2.895 13.671 5.347 19.09 10.5 11.09 8.153 22.479 20.854 19.844 35.781-.515 6.661-7.843 12.549-14.12 8.281-15.31-6.504-27.504-18.447-40.969-28-33.997-26.615-66.985-58.11-81.5-99.84-12.525-33.587-19.815-72.44-5.406-106.59 7.146-17.648 19.981-32.04 33.406-45.06.863-1.02 3.33-3.873.125-2.781-11.337 2.669-20.783 10.677-29.875 17.656-29.16 24.71-45.04 63-43.969 101.06-.655 52.4 20.597 102.71 51.41 144.03 13.888 19.583 29.35 38.988 36.22 62.28.369 1.142-.83 5.24 1.469 3.094 16.667-8.394 27.599-24.58 43.16-34.31 7.202-5.071 16.497-2.896 23.375 1.656 3.912 3.556 10.534 3.932 13.12 8.688 1.437 6.847-7.655 8.496-12.09 10.75-18.462 8.299-36.929 23.01-40.44 44-1.84 8.877 6.19 18.655 15.406 15.656 10.01-2.403 16.774-14.15 12.813-23.813-.903-11.165 9.918-17.985 19.06-21.313 4.949-3.41 13.976-6.453 17.469.438 4.396 9.891.799 21.02.188 31.344-1.169 8.7-5.435 16.558-9.906 23.813-.856 7.997 6.275 14.04 11.375 19.12 1.092.732 2.244 1.321 3.406 1.813v-494.59m-38.906 97.12c9.67.188 12.9 11.24 14.406 19.03 10.756 43.41 19.06 72.05 5.844 115.91-3.059 10.159-4.632 22.09-12.406 29.688-9.249 4.452-18.212-3.835-25.03-9.188-31.21-25.829-48.556-60.792-35.406-100.31 8.347-25.892 26.76-40.11 49.656-54.53.937-.372 1.934-.489 2.938-.594" opacity=".25"/><path d="m309.98 75.75c2.426 3.65 4.819 7.361 8.156 10.188 10.824 12.399 25.446 21.517 34.19 35.688-.587 6.373 1.164 27.07 6.75 30.719 8.721 6.508 19.2 10.853 26.313 19.281 21.03 20.19 36.9 39.13 38.594 68.781 2.886 29.427-1.176 50.731-18.719 75.19-11.162 15.815-24.25 30.939-41.656 39.563-7.164 3.737-13.455 15.04-11.5 23.719.081 4.156 2.823 9.591.531 13.219-6.659 2.895-13.671 5.347-19.09 10.5-11.09 8.153-22.479 20.854-19.844 35.781.515 6.661 7.843 12.549 14.12 8.281 15.31-6.504 27.504-18.447 40.969-28 33.997-26.615 66.985-58.11 81.5-99.84 12.525-33.587 19.815-72.44 5.406-106.59-7.146-17.648-19.981-32.04-33.406-45.06-.863-1.02-3.33-3.873-.125-2.781 11.337 2.669 20.783 10.677 29.875 17.656 29.16 24.71 45.04 63 43.969 101.06.655 52.4-20.597 102.71-51.41 144.03-13.888 19.583-29.35 38.988-36.22 62.28-.369 1.142.83 5.24-1.469 3.094-16.667-8.394-27.599-24.58-43.16-34.31-7.202-5.071-16.497-2.896-23.375 1.656-3.912 3.556-10.534 3.932-13.12 8.688-1.437 6.847 7.655 8.496 12.09 10.75 18.462 8.299 36.929 23.01 40.44 44 1.84 8.877-6.19 18.655-15.406 15.656-10.01-2.403-16.774-14.15-12.813-23.813.903-11.165-9.918-17.985-19.06-21.313-4.949-3.41-13.976-6.453-17.469.438-4.396 9.891-.799 21.02-.188 31.344 1.169 8.7 5.435 16.558 9.906 23.813.856 7.997-6.275 14.04-11.375 19.12-1.092.732-2.244 1.321-3.406 1.813v-494.59m38.906 97.12c-9.67.188-12.9 11.24-14.406 19.03-10.756 43.41-19.06 72.05-5.844 115.91 3.059 10.159 4.632 22.09 12.406 29.688 9.249 4.452 18.212-3.835 25.03-9.188 31.21-25.829 48.556-60.792 35.406-100.31-8.347-25.892-26.76-40.11-49.656-54.53-.937-.372-1.934-.489-2.938-.594" opacity=".25"/><path d="m273.63 34.656c11.446 17.843 31.646 28.29 42.75 46.47-.066 9.839.013 20.754 5.344 29.19 10.112 7.147 21.693 12.805 29.744 22.482 18.288 17.17 34.62 38.897 36.32 64.736 2.867 23.477.525 48.24-12.03 68.65-12.844 20.735-28.749 40.784-51.01 51.85-8.383 6.141-10.773 17.678-7.531 27.344 1.374 4.686-.679 9.96-6.161 10.388-12.22 5.087-23.21 14.01-30.18 25.425-3.784 6.925-6.071 17.448.375 23.469 5.652 4.11 11.629-2.501 16.738-4.411 15.805-10.263 30.2-22.267 44.931-33.986 30.28-25.04 64.04-58.09 75.74-96.45 11.752-33.382 15.04-76.4-1.688-109.12-7.546-15.729-20.2-27.74-31.875-40.469-2.09-3.1 2.089-5.273 4.656-3.5 14.433 4.372 26.13 14.652 36.988 24.645 26.792 26.667 41.645 69.51 39.2 107.14-1.308 52.816-30.398 104.58-62.08 145.88-12.408 17.512-26.08 35.32-31.541 56.31 1.203 4.02-3.402 5.744-5.875 2.75-17.503-9.06-28.327-27.451-46.25-35.688-7.902-2.207-14.866 2.729-21.22 6.531-3.076 1.199-10.65 4.052-6.688 8.313 7.893 4.869 17.216 7.26 24.642 13.03 14.12 9.401 27 24.412 27.01 42.16-.713 9.395-11.275 16.835-20.12 12.469-10.38-3.681-16.02-16.284-12.188-26.531-.248-10.451-11.401-15.404-19.625-19.12-4.176-2.858-12.388-4.39-13.813 2.219-3.095 10.603.296 21.742 1.344 32.28 1.507 7.71 6.637 14.05 9.281 21.06.068 9.109-7.545 16.1-14.219 21.16-6.695 5.416-4.264-3.586-4.625-7.969 0-164.75 0-329.5 0-494.25 1.219 1.854 2.438 3.708 3.656 5.563m36.969 104.25c-8.749.71-10.942 11.425-12.427 18.44-8.284 32.31-17.08 61.977-9.348 95.29 3.347 12.631 5.719 21.687 11.213 33.55 1.851 4.89 6.731 8.136 11.938 6.094 12.526-5.351 18.11-13.753 27.24-23.517 18.12-20.13 27.682-47.2 20.17-73.952-4.936-22.56-17.18-36.48-36.02-48.702-4.263-2.151-7.858-6.785-12.763-7.204"/></g></svg>
